!!!OTL: Xian hua ge
!!!ARE: Asia, China,ÿShandong Yiexian
!! III, 318
!!!SCT: C1753
!!!YEM: Copyright 1995, estate of Helmut Schaffrath.
**kern
*ICvox
*Ivox
*M2/4
*k[b-e-a-]
*E-:
{8ee-
16ff
16ee-
16cc
16b-
16cc
16ee-
=1
8b-
4b-
8cc
=2
8ee-
16ff
16ee-
16cc
16b-
16cc
16ee-
=3
4.b-}
{16cc
16b-
=4
8g
4g
8b-
=5
8cc
16b-
16cc
4ee-
=6
8g
8b-
16cc
16b-
16cc
16ee-
=7
8b-}
{16b-
16cc
8b-
8g
=8
8b-
8e-
4f
=9
8.f
16g
4b-}
=10
{8cc
16b-
16cc
8g
8f
=11
2e-}
==
!!!AGN: Xiaodiao, Wugeng diao
!!!AMT: simple duple
!!!AIN: vox
!!!EED: Helmut Schaffrath
!!!EEV: 1.0
*-
